X: 1
T:Paddy's in Chicago
C:Eoghan O'Brien
M:4/4
L:1/8
Z:Joe Gerhard <jgerhard:snet.net>
S:from DEANTA "Whisper of a Secret"
R:Hornpipe
B:
K:D
de \
| fAAf ed(3Bcd  | ABAF ~E3F | Ddef edBA | Beed ~e2de |
| fAAf ed ~B2 | ABAF {g}EDEF | DEDB, A,B,DF | E2EF D2 :|
DE \
| FA,A,F  ED (3 B,CD | A,B,DF EDB,D| (3 FED ED EFED|
| BEED E2AG | FA,A,F EDB,D | A,B,DF EDEF | Ddef edBd | Add{e}c d2 :|

